assets/Desktop computer/Flat/desktop_computer_flat.svg

<svg xmlns="http://www.w3.org/2000/svg" width="32" height="32" fill="none"><path fill="#9B9B9B" d="M26.37 26H5.63c-.35 0-.63.28-.63.63v2.74c0 .35.28.63.63.63h20.74c.35 0 .63-.28.63-.63v-2.74c0-.35-.28-.63-.63-.63Z"/><path fill="#BEBEBE" d="M8.173 23H9v.29c0 .39.32.71.712.71h12.567c.4 0 .721-.32.721-.71V23h.827c.653 0 1.173-.39 1.173-.88V17h-2v4H9v-4H7v5.12c0 .49.52.88 1.173.88ZM5.63 25h20.74c.35 0 .63.28.63.63v2.74c0 .35-.28.63-.63.63H5.63c-.35 0-.63-.28-.63-.63v-2.74c0-.35.28-.63.63-.63Z"/><path fill="#7167A4" d="M29 19H3c-.55 0-1-.45-1-1V3c0-.55.45-1 1-1h26c.55 0 1 .45 1 1v15c0 .55-.45 1-1 1Z"/><path fill="#26C9FC" d="M3 17.75V3.25c0-.14.11-.25.25-.25h25.5c.14 0 .25.11.25.25v14.5c0 .14-.11.25-.25.25H3.25c-.14 0-.25-.11-.25-.25Z"/><path fill="#9B9B9B" d="M7 19h2v1H7v-1Zm-.12 6.75h-.76c-.06 0-.12.06-.12.13v.75c0 .07.06.12.12.12h.75c.07 0 .12-.06.12-.12v-.75a.116.116 0 0 0-.11-.13Zm1.72 0h-.75c-.07 0-.12.06-.12.12v.75c0 .07.06.12.12.12h.75c.07 0 .12-.06.12-.12v-.75c.01-.06-.05-.12-.12-.12Zm.98 0h.75c.07 0 .12.06.12.12v.75c0 .06-.05.12-.12.12h-.75c-.06 0-.12-.05-.12-.12v-.75c0-.06.05-.12.12-.12Zm2.48 0h-.75c-.07 0-.12.06-.12.12v.75c0 .07.06.12.12.12h.75c.07 0 .12-.06.12-.12v-.75c0-.06-.05-.12-.12-.12Zm.97 0h.75c.07 0 .13.06.12.12v.75c0 .06-.05.12-.12.12h-.75c-.06 0-.12-.05-.12-.12v-.75c0-.06.05-.12.12-.12Zm2.48 0h-.75c-.07 0-.12.06-.12.12v.75c0 .07.06.12.12.12h.75c.07 0 .12-.06.12-.12v-.75c.01-.06-.05-.12-.12-.12Zm.98 0h.75c.07 0 .12.06.12.12v.75c0 .06-.05.12-.12.12h-.75c-.06 0-.12-.05-.12-.12v-.75c0-.06.05-.12.12-.12Zm2.48 0h-.75c-.07 0-.12.06-.12.12v.75c0 .07.06.12.12.12h.75c.07 0 .12-.06.12-.12v-.75c0-.06-.06-.12-.12-.12Zm.97 0h.75c.07 0 .13.06.12.12v.75c0 .06-.05.12-.12.12h-.75c-.06 0-.12-.05-.12-.12v-.75c0-.06.05-.12.12-.12Zm2.48 0h-.75c-.07 0-.12.06-.12.12v.75c0 .07.06.12.12.12h.75c.07 0 .12-.06.12-.12v-.75c.01-.06-.05-.12-.12-.12Zm.98 0h.75c.07 0 .12.06.12.12v.75c0 .06-.05.12-.12.12h-.75c-.06 0-.12-.05-.12-.12v-.75c0-.06.05-.12.12-.12Zm2.48 0h-.75c-.07 0-.12.06-.12.12v.75c0 .07.06.12.12.12h.75c.07 0 .12-.06.12-.12v-.75c0-.06-.06-.12-.12-.12Zm-19.76 1.5h.76c.06 0 .12.06.11.13v.75c0 .06-.05.12-.12.12h-.75c-.06 0-.12-.05-.12-.12v-.75c0-.07.06-.13.12-.13Zm2.48 0h-.75c-.07 0-.12.06-.12.12v.75c0 .07.06.12.12.12h.75c.07 0 .12-.06.12-.12v-.75c.01-.06-.05-.12-.12-.12Zm.98 0h.75c.07 0 .12.06.12.12v.75c0 .06-.05.12-.12.12h-.75c-.06 0-.12-.05-.12-.12v-.75c0-.06.05-.12.12-.12Zm2.48 0h-.75c-.07 0-.12.06-.12.12v.75c0 .07.06.12.12.12h.75c.07 0 .12-.06.12-.12v-.75c0-.06-.05-.12-.12-.12Zm.98 0h5.9c.07 0 .12.06.12.12v.75c0 .06-.05.12-.12.12h-5.9c-.06 0-.12-.05-.12-.12v-.75c0-.06.05-.12.12-.12Zm7.65 0h-.75c-.07 0-.12.06-.12.12v.75c0 .07.06.12.12.12h.75c.07 0 .12-.06.12-.12v-.75c.01-.06-.05-.12-.12-.12Zm.98 0h.75c.07 0 .13.06.12.12v.75c0 .06-.05.12-.12.12h-.75c-.06 0-.12-.05-.12-.12v-.75c0-.06.05-.12.12-.12Zm2.48 0h-.75c-.07 0-.12.06-.12.12v.75c0 .07.06.12.12.12h.75c.07 0 .12-.06.12-.12v-.75c0-.06-.05-.12-.12-.12Zm.98 0h.75c.06 0 .12.06.12.12v.75c0 .06-.05.12-.12.12h-.75c-.06 0-.12-.05-.12-.12v-.75c0-.06.05-.12.12-.12ZM25 19h-2v1h2v-1Z"/></svg>

<svg width="32" height="32" viewBox="0 0 32 32" fill="none" xmlns="http://www.w3.org/2000/svg">
<path d="M26.37 26H5.63C5.28 26 5 26.28 5 26.63V29.37C5 29.72 5.28 30 5.63 30H26.37C26.72 30 27 29.72 27 29.37V26.63C27 26.28 26.72 26 26.37 26Z" fill="#9B9B9B"/>
<path d="M8.17333 23H9V23.29C9 23.68 9.32069 24 9.71152 24H22.2785C22.6793 24 23 23.68 23 23.29V23H23.8267C24.48 23 25 22.61 25 22.12V17H23V21H9V17H7V22.12C7 22.61 7.52 23 8.17333 23ZM5.63 25H26.37C26.72 25 27 25.28 27 25.63V28.37C27 28.72 26.72 29 26.37 29H5.63C5.28 29 5 28.72 5 28.37V25.63C5 25.28 5.28 25 5.63 25Z" fill="#BEBEBE"/>
<path d="M29 19H3C2.45 19 2 18.55 2 18V3C2 2.45 2.45 2 3 2H29C29.55 2 30 2.45 30 3V18C30 18.55 29.55 19 29 19Z" fill="#7167A4"/>
<path d="M3 17.75V3.25C3 3.11 3.11 3 3.25 3H28.75C28.89 3 29 3.11 29 3.25V17.75C29 17.89 28.89 18 28.75 18H3.25C3.11 18 3 17.89 3 17.75Z" fill="#26C9FC"/>
<path d="M7 19H9V20H7V19ZM6.88 25.75H6.12C6.06 25.75 6 25.81 6 25.88V26.63C6 26.7 6.06 26.75 6.12 26.75H6.87C6.94 26.75 6.99 26.69 6.99 26.63V25.88C7 25.81 6.94 25.75 6.88 25.75ZM8.59998 25.75H7.84998C7.77998 25.75 7.72998 25.81 7.72998 25.87V26.62C7.72998 26.69 7.78998 26.74 7.84998 26.74H8.59998C8.66998 26.74 8.71998 26.68 8.71998 26.62V25.87C8.72998 25.81 8.66998 25.75 8.59998 25.75ZM9.58002 25.75H10.33C10.4 25.75 10.45 25.81 10.45 25.87V26.62C10.45 26.68 10.4 26.74 10.33 26.74H9.58002C9.52002 26.74 9.46002 26.69 9.46002 26.62V25.87C9.46002 25.81 9.51002 25.75 9.58002 25.75ZM12.06 25.75H11.31C11.24 25.75 11.19 25.81 11.19 25.87V26.62C11.19 26.69 11.25 26.74 11.31 26.74H12.06C12.13 26.74 12.18 26.68 12.18 26.62V25.87C12.18 25.81 12.13 25.75 12.06 25.75ZM13.03 25.75H13.78C13.85 25.75 13.91 25.81 13.9 25.87V26.62C13.9 26.68 13.85 26.74 13.78 26.74H13.03C12.97 26.74 12.91 26.69 12.91 26.62V25.87C12.91 25.81 12.96 25.75 13.03 25.75ZM15.51 25.75H14.76C14.69 25.75 14.64 25.81 14.64 25.87V26.62C14.64 26.69 14.7 26.74 14.76 26.74H15.51C15.58 26.74 15.63 26.68 15.63 26.62V25.87C15.64 25.81 15.58 25.75 15.51 25.75ZM16.49 25.75H17.24C17.31 25.75 17.36 25.81 17.36 25.87V26.62C17.36 26.68 17.31 26.74 17.24 26.74H16.49C16.43 26.74 16.37 26.69 16.37 26.62V25.87C16.37 25.81 16.42 25.75 16.49 25.75ZM18.97 25.75H18.22C18.15 25.75 18.1 25.81 18.1 25.87V26.62C18.1 26.69 18.16 26.74 18.22 26.74H18.97C19.04 26.74 19.09 26.68 19.09 26.62V25.87C19.09 25.81 19.03 25.75 18.97 25.75ZM19.94 25.75H20.69C20.76 25.75 20.82 25.81 20.81 25.87V26.62C20.81 26.68 20.76 26.74 20.69 26.74H19.94C19.88 26.74 19.82 26.69 19.82 26.62V25.87C19.82 25.81 19.87 25.75 19.94 25.75ZM22.42 25.75H21.67C21.6 25.75 21.55 25.81 21.55 25.87V26.62C21.55 26.69 21.61 26.74 21.67 26.74H22.42C22.49 26.74 22.54 26.68 22.54 26.62V25.87C22.55 25.81 22.49 25.75 22.42 25.75ZM23.4 25.75H24.15C24.22 25.75 24.27 25.81 24.27 25.87V26.62C24.27 26.68 24.22 26.74 24.15 26.74H23.4C23.34 26.74 23.28 26.69 23.28 26.62V25.87C23.28 25.81 23.33 25.75 23.4 25.75ZM25.88 25.75H25.13C25.06 25.75 25.01 25.81 25.01 25.87V26.62C25.01 26.69 25.07 26.74 25.13 26.74H25.88C25.95 26.74 26 26.68 26 26.62V25.87C26 25.81 25.94 25.75 25.88 25.75ZM6.12 27.25H6.88C6.94 27.25 7 27.31 6.99 27.38V28.13C6.99 28.19 6.94 28.25 6.87 28.25H6.12C6.06 28.25 6 28.2 6 28.13V27.38C6 27.31 6.06 27.25 6.12 27.25ZM8.59998 27.25H7.84998C7.77998 27.25 7.72998 27.31 7.72998 27.37V28.12C7.72998 28.19 7.78998 28.24 7.84998 28.24H8.59998C8.66998 28.24 8.71998 28.18 8.71998 28.12V27.37C8.72998 27.31 8.66998 27.25 8.59998 27.25ZM9.58002 27.25H10.33C10.4 27.25 10.45 27.31 10.45 27.37V28.12C10.45 28.18 10.4 28.24 10.33 28.24H9.58002C9.52002 28.24 9.46002 28.19 9.46002 28.12V27.37C9.46002 27.31 9.51002 27.25 9.58002 27.25ZM12.06 27.25H11.31C11.24 27.25 11.19 27.31 11.19 27.37V28.12C11.19 28.19 11.25 28.24 11.31 28.24H12.06C12.13 28.24 12.18 28.18 12.18 28.12V27.37C12.18 27.31 12.13 27.25 12.06 27.25ZM13.04 27.25H18.94C19.01 27.25 19.06 27.31 19.06 27.37V28.12C19.06 28.18 19.01 28.24 18.94 28.24H13.04C12.98 28.24 12.92 28.19 12.92 28.12V27.37C12.92 27.31 12.97 27.25 13.04 27.25ZM20.69 27.25H19.94C19.87 27.25 19.82 27.31 19.82 27.37V28.12C19.82 28.19 19.88 28.24 19.94 28.24H20.69C20.76 28.24 20.81 28.18 20.81 28.12V27.37C20.82 27.31 20.76 27.25 20.69 27.25ZM21.67 27.25H22.42C22.49 27.25 22.55 27.31 22.54 27.37V28.12C22.54 28.18 22.49 28.24 22.42 28.24H21.67C21.61 28.24 21.55 28.19 21.55 28.12V27.37C21.55 27.31 21.6 27.25 21.67 27.25ZM24.15 27.25H23.4C23.33 27.25 23.28 27.31 23.28 27.37V28.12C23.28 28.19 23.34 28.24 23.4 28.24H24.15C24.22 28.24 24.27 28.18 24.27 28.12V27.37C24.27 27.31 24.22 27.25 24.15 27.25ZM25.13 27.25H25.88C25.94 27.25 26 27.31 26 27.37V28.12C26 28.18 25.95 28.24 25.88 28.24H25.13C25.07 28.24 25.01 28.19 25.01 28.12V27.37C25.01 27.31 25.06 27.25 25.13 27.25ZM25 19H23V20H25V19Z" fill="#9B9B9B"/>
</svg>
